; G-Code generated by Simplify3D(R) Version 5.1.2
; Apr 25, 2024 at 8:11:40 PM
; Settings Summary
;   processName,Process 1
;   autoConfigureMaterial,PETG
;   autoConfigureQuality,High
;   targetModels,Ultimate_Silica_Box_Top
;   profileName,Albert
;   profileVersion,2023-11-08 17:56:15
;   app,S3D-Software 5.1.2
;   technology,fff
;   baseProfile,Creality Ender 3(2)
;   extruder,Primary Extruder
;   toolheadNumber,0
;   nozzleDiameter,0.40000
;   extrusionMultiplier,0.99000
;   extrusionWidthMode,manual
;   extrusionWidth,0.40000
;   useRetraction,1
;   retractDistance,0.50000
;   extraRestartDistance,0.00000
;   retractVerticalLift,0.00000
;   retractSpeed,1800.00000
;   useCoasting,1
;   coastingDistance,0.30000
;   useWiping,0
;   wipingDistance,5.00000
;   speedMaxFlowRate,780.00000
;   toolheadOffsetX,0.00000
;   toolheadOffsetY,0.00000
;   filamentDiameter,1.75000
;   filamentPricePerKilogram,26.00000
;   filamentDensity,1.25000
;   primaryExtruder,Primary Extruder
;   layerHeight,0.12000
;   topSolidLayers,5
;   bottomSolidLayers,3
;   outlinePerimeters,3
;   useVaseMode,0
;   useAdaptiveLayerHeights,0
;   minAdaptiveLayerHeight,0.10000
;   maxAdaptiveLayerHeight,0.30000
;   adaptiveSmoothingLevel,8
;   horizontalOuterCompensation,0.00000
;   horizontalInnerCompensation,0.00000
;   firstLayerUnits,percentage
;   firstLayerHeightPercentage,250
;   firstLayerWidthPercentage,100
;   firstLayerSpeedPercentage,10
;   firstLayerHeightAbsolute,0.30000
;   firstLayerWidthAbsolute,0.40000
;   firstLayerSpeedAbsolute,900.00000
;   startPointStrategy,closest
;   alignStartPointsX,0.00000
;   alignStartPointsY,0.00000
;   restrictStartPoints,1
;   perimeterPrintingOrder,inside_out
;   islandPrintingOrder,closest
;   printInfillBeforePerimeters,0
;   useSkirt,0
;   skirtExtruder,Primary Extruder
;   skirtLayers,1
;   skirtOffset,6.00000
;   skirtOutlines,3
;   useRaft,0
;   raftExtruder,Primary Extruder
;   raftBaseLayers,2
;   raftTopLayers,3
;   raftOffset,5.00000
;   raftSeparationDistance,0.18000
;   raftSpeedUnits,percentage
;   raftSpeedPercentage,30
;   raftSpeedAbsolute,600.00000
;   usePrimePillar,0
;   primePillarExtruder,All Extruders
;   primePillarWidth,12.00000
;   primePillarLocation,north_west
;   primePillarSpeedPercentage,99
;   primePillarInfillPercentage,100
;   autoStopPrimePillar,1
;   primePillarLayersAfterAutoStop,0
;   useOozeShield,0
;   oozeShieldExtruder,All Extruders
;   oozeShieldOffset,2.00000
;   oozeShieldOutlines,1
;   oozeShieldSidewallShape,waterfall
;   oozeShieldSidewallAngle,30
;   oozeShieldSpeedPercentage,98
;   autoStopOozeShield,1
;   oozeShieldLayersAfterAutoStop,0
;   sparseInfillExtruder,Primary Extruder
;   sparseInfillPattern,rectilinear
;   sparseInfillRotation,0
;   sparseInfillPercentage,12
;   sparseInfillExtrusionWidthPercentage,100
;   sparseInfillCombinedLayers,1
;   denseInfillLayers,2
;   denseInfillPercentage,60
;   infillOutlineOverlapPercentage,15
;   minInfillLength,1.00000
;   externalInfillPattern,concentric
;   externalInfillRotation,0
;   solidInfillThresholdArea,25.00000
;   solidInfillExtraExpansion,0.00000
;   useMonotonic,1
;   useDiaphragm,0
;   diaphragmSolidLayers,3
;   diaphragmSpacingLayers,20
;   topLayerExtraExpansion,1.00000
;   topLayerExtrusionModifier,100
;   overrideFanSpeedForTopLayer,1
;   topLayerFanSpeedPercentage,100
;   useIroning,1
;   ironingOutlineOffsetPercentage,50
;   ironingExtrusionWidthPercentage,90
;   ironingExtrusionModifier,25
;   ironingSpeedModifier,250
;   sparseSupportExtruder,Primary Extruder
;   sparseSupportInfillPattern,aligned
;   sparseSupportInfillRotation,0
;   sparseSupportInfillPercentage,20
;   sparseSupportOutlines,0
;   sparseSupportCombinedLayers,1
;   upperDenseSupportLayers,2
;   lowerDenseSupportLayers,2
;   denseSupportExtruder,Primary Extruder
;   denseSupportInfillPercentage,40
;   denseSupportExtraExpansion,0.50000
;   baseSupportLayers,2
;   supportInflationDistance,0.00000
;   supportHorizontalPartOffset,0.60000
;   supportUpperSeparationLayers,1
;   supportLowerSeparationLayers,1
;   temperatureController,Primary Extruder
;   enableTemperatureController,1
;   temperatureNumber,0
;   temperatureType,extruder
;   stabilizeAtStartup,1
;   temperatureSetpoints,1|250
;   useIdleCooldown,0
;   cooldownTemperature,150
;   cooldownRequiredIdleTime,180
;   cooldownReheatTime,60
;   temperatureController,Heated Bed
;   enableTemperatureController,1
;   temperatureNumber,0
;   temperatureType,platform
;   stabilizeAtStartup,1
;   temperatureSetpoints,1|75
;   useIdleCooldown,0
;   cooldownTemperature,150
;   cooldownRequiredIdleTime,180
;   cooldownReheatTime,60
;   fan,Cooling Fan
;   fanNumber,0
;   fanType,extruder
;   blipFanToFullPower,1
;   fanSetpoints,1|0,4|40
;   increaseFanForQuickLayers,1
;   fanMaxQuickLayerTime,20.00000
;   fanMinQuickLayerTime,15.00000
;   maxQuickLayerFanSpeedPercentage,100
;   defaultPrintSpeed,6000.00000
;   outerPerimeterSpeedPercentage,60
;   innerPerimeterSpeedPercentage,100
;   topLayerSpeedPercentage,40
;   solidInfillSpeedPercentage,100
;   sparseSupportSpeedPercentage,80
;   denseSupportSpeedPercentage,80
;   travelSpeedXY,60000.00000
;   travelSpeedZ,1800.00000
;   reduceSpeedForQuickLayers,1
;   speedMaxQuickLayerTime,16.00000
;   minQuickLayerSpeedPercentage,30
;   reduceSpeedForShortPerimeters,1
;   speedMaxShortPerimeterLength,80.00000
;   minShortPerimeterSpeedPercentage,50
;   reduceSpeedForMaxFlowRate,1
;   accelXY,1000.00000
;   accelZ,100.00000
;   accelE,5000.00000
;   jerkXY,600.00000
;   jerkZ,24.00000
;   jerkE,300.00000
;   exportFileFormat,gcode
;   useStickyCommands,1
;   use5D,1
;   relativeExtrusionDistances,0
;   allowExtruderAxisZeroing,1
;   independentExtruderAxes,0
;   includeM10123,0
;   includeThumbnailImages,1
;   thumbnailImageEncoding,standard
;   thumbnailImageSizes,300|300
;   x3gMachineProfile,r2
;   overrideStepsPerMillimeter,0
;   stepsPerMillimeterX,88.57319
;   stepsPerMillimeterY,88.57319
;   stepsPerMillimeterZ,400.00000
;   stepsPerMillimeterA,96.27520
;   stepsPerMillimeterB,96.27520
;   xyzFileFormatVersion,1
;   makerBotMachineProfile,replicator_5
;   makerBotModelExtruder,mk13
;   makerBotSupportExtruder,mk14_s
;   makerBotModelMaterial,pla
;   makerBotSupportMaterial,pva
;   globalOffsetX,0.00000
;   globalOffsetY,0.00000
;   globalOffsetZ,0.00000
;   applyToolheadOffsets,0
;   buildVolumeShape,rectangular
;   buildVolumeX,235.00000
;   buildVolumeY,209.00000
;   buildVolumeZ,250.00000
;   buildVolumeDiameter,200.00000
;   originOffsetX,0.00000
;   originOffsetY,0.00000
;   originOffsetZ,0.00000
;   homingDirectionX,min
;   homingDirectionY,min
;   homingDirectionZ,min
;   mirrorVisualX,0
;   mirrorVisualY,1
;   mirrorVisualZ,0
;   machineBackgroundModel,
;   startingScript,G90; Apsolute Positioning|G28 ; Home|G29 ; Generate Bilinear Mesh||G1 X6 Y50 Z.3 F5000.0 ; Move to start position|G1 X6 Y200.0 Z.3 F1500.0 E30 ; Draw the first line|G1 X7 Y200.0 Z.3 F5000.0 ; Move to side a little|G1 X7 Y55 Z0.3 F1500.0 E65 ; Draw the second line|G1 X7 Y50 Z0.3 F1500.0 ; Stop extruding|G1 X7 Y40 Z0.2 F800.0 ; Wipe|G92 E0 ; Reset Extruder|;G1 Z.5 F3000 ; Move Z Axis up little to prevent scratching of Heat Bed||M209 S1 ; Enable Firmware Retract
;   preLayerChangeScript,
;   postLayerChangeScript,
;   preRetractionScript,
;   postRetractionScript,
;   preToolChangeScript,
;   postToolChangeScript,
;   processChangeScript,
;   endingScript,M209 S0|G91|G1 E-2 F3000 ; Small retract|G90|M209 S1|M106 S0 ; turn off cooling fan|M104 S0 ; turn off extruder|M140 S0 ; turn off bed|G27 P1 ; Park Extruder|M117 Albert has Finished
;   postProcessingScript,"{REPLACE ""G1 E-0.5000 F1800\n"" ""G10\n""}|{REPLACE ""G1 E0.5000 F1800\n"" ""G11\n""} ||;curl -k -H ""X-Api-Key: F31C4E45AD5D4B5BA8D23ED9FCEB9C1E"" -F ""select=false"" -F ""print=false"" -F ""file=@[output_filepath]"" ""http://192.168.20.51/api/files/local"" {STRIP ""; postProcessing""}"
;   useBridging,1
;   bridgingThresholdArea,20.00000
;   bridgingInfillExtraExpansion,1.00000
;   bridgingExtrusionModifier,90
;   bridgingSpeedModifier,30
;   overrideFanSpeedForBridging,1
;   bridgingFanSpeedPercentage,100
;   useFixedBridgingAngle,0
;   fixedBridgingAngle,0
;   applyBridgingToPerimeters,1
;   bridgingPerimeterExtraOverlap,0.00000
;   minBridgingPerimeterLength,10.00000
;   useToolChangeRetraction,1
;   toolChangeRetractDistance,12.00000
;   toolChangeExtraRestartDistance,-0.50000
;   toolChangeRetractSpeed,600.00000
;   toolChangePrimeOnFirstUse,0
;   toolChangeRetractAtEnd,0
;   externalThinWallType,single_extrusions
;   internalThinWallType,single_extrusions
;   thinWallAllowedOverlapPercentage,10
;   singleExtrusionMinLength,1.00000
;   singleExtrusionMinWidthPercentage,50
;   singleExtrusionMaxWidthPercentage,200
;   singleExtrusionEndpointExtensionDistance,0.20000
;   onlyRetractWhenCrossingOutlines,1
;   retractBetweenLayers,0
;   retractOnTopLayers,0
;   useRetractionMinTravel,0
;   retractionMinTravel,3.00000
;   useRetractionMinExtrusion,0
;   retractionMinExtrusion,3.00000
;   onlyVerticalLiftOnTopLayers,0
;   retractWhileWiping,1
;   wipingMode,outer_perimeter
;   avoidCrossingOutlines,1
;   maxMovementDetourFactor,3.00000
;   openLoopSlicingBehavior,discard
;   openLoopThickenWidth,0.50000
;   slicingRegionRepairMode,positive
G90
M82
M106 S0 P0
M140 S75
M190 S75
M104 S250 T0
M109 S250 T0
G90; Apsolute Positioning
G28 ; Home
G29 ; Generate Bilinear Mesh
G1 X6 Y50 Z.3 F5000.0 ; Move to start position
G1 X6 Y200.0 Z.3 F1500.0 E30 ; Draw the first line
G1 X7 Y200.0 Z.3 F5000.0 ; Move to side a little
G1 X7 Y55 Z0.3 F1500.0 E65 ; Draw the second line
G1 X7 Y50 Z0.3 F1500.0 ; Stop extruding
G1 X7 Y40 Z0.2 F800.0 ; Wipe
G92 E0 ; Reset Extruder
;G1 Z.5 F3000 ; Move Z Axis up little to prevent scratching of Heat Bed
M209 S1 ; Enable Firmware Retract
; process Process 1
; layer 1, Z = 0.3000
T0
G92 E0.00000
G1 E-0.50000 F1800
; feature inner perimeter
; tool H0.3000 W0.400
G1 Z0.3000 F1800
G1 X73.737 Y60.860 F60000
G92 E0.00000
G1 E0.50000 F1800
G92 E0.00000
G1 X73.860 Y60.737 E0.00858 F300
G1 X74.002 Y60.637 E0.01715
G1 X74.159 Y60.564 E0.02574
G1 X74.327 Y60.519 E0.03431
G1 X74.544 Y60.500 E0.04505
G1 X76.132 Y60.500 E0.12349
G1 X76.194 Y60.782 E0.13776
G1 X75.948 Y60.897 E0.15119
G1 X75.148 Y61.457 E0.19943
G1 X74.457 Y62.148 E0.24768
G1 X73.897 Y62.948 E0.29592
G1 X73.782 Y63.194 E0.30935
G1 X73.500 Y63.132 E0.32362
G1 X73.500 Y61.544 E0.40207
G1 X73.519 Y61.327 E0.41281
G1 X73.564 Y61.159 E0.42138
G1 X73.584 Y61.116 E0.42372
G1 X73.637 Y61.002 F300
G1 X73.737 Y60.860
G1 X73.782 Y68.306 F60000
G92 E0.00000
G1 X73.897 Y68.552 E0.01342 F600
G1 X74.457 Y69.352 E0.06167
G1 X75.148 Y70.043 E0.10992
G1 X75.948 Y70.603 E0.15816
G1 X76.833 Y71.016 E0.20641
G1 X77.777 Y71.269 E0.25465
G1 X78.750 Y71.354 E0.30290
G1 X79.723 Y71.269 E0.35115
G1 X80.667 Y71.016 E0.39940
G1 X81.552 Y70.603 E0.44764
G1 X82.352 Y70.043 E0.49588
G1 X83.043 Y69.352 E0.54413
G1 X83.603 Y68.552 E0.59238
G1 X84.016 Y67.667 E0.64062
G1 X84.269 Y66.723 E0.68887
G1 X84.354 Y65.750 E0.73711
G1 X84.269 Y64.777 E0.78536
G1 X84.016 Y63.833 E0.83361
G1 X83.603 Y62.948 E0.88185
G1 X83.043 Y62.148 E0.93010
G1 X82.352 Y61.457 E0.97834
G1 X81.552 Y60.897 E1.02659
G1 X81.306 Y60.782 E1.04001
G1 X81.368 Y60.500 E1.05428
G1 X153.632 Y60.500 E4.62348
G1 X153.694 Y60.782 E4.63775
G1 X153.448 Y60.897 E4.65118
G1 X152.648 Y61.457 E4.69942
G1 X151.957 Y62.148 E4.74767
G1 X151.397 Y62.948 E4.79591
G1 X150.984 Y63.833 E4.84416
G1 X150.731 Y64.777 E4.89241
G1 X150.646 Y65.750 E4.94065
G1 X150.731 Y66.723 E4.98890
G1 X150.984 Y67.667 E5.03714
G1 X151.397 Y68.552 E5.08539
G1 X151.957 Y69.352 E5.13364
G1 X152.648 Y70.043 E5.18188
G1 X153.448 Y70.603 E5.23013
G1 X154.333 Y71.016 E5.27837
G1 X155.277 Y71.269 E5.32662
G1 X156.250 Y71.354 E5.37487
G1 X157.223 Y71.269 E5.42311
G1 X158.167 Y71.016 E5.47136
G1 X159.052 Y70.603 E5.51960
G1 X159.852 Y70.043 E5.56785
G1 X160.543 Y69.352 E5.61610
G1 X161.103 Y68.552 E5.66434
G1 X161.218 Y68.306 E5.67777
G1 X161.500 Y68.368 E5.69204
G1 X161.500 Y140.632 E9.26124
G1 X161.218 Y140.694 E9.27551
G1 X161.103 Y140.448 E9.28893
G1 X160.543 Y139.648 E9.33718
G1 X159.852 Y138.957 E9.38543
G1 X159.052 Y138.397 E9.43367
G1 X158.167 Y137.984 E9.48192
G1 X157.223 Y137.731 E9.53016
G1 X156.250 Y137.646 E9.57841
G1 X155.277 Y137.731 E9.62665
G1 X154.333 Y137.984 E9.67490
G1 X153.448 Y138.397 E9.72315
G1 X152.648 Y138.957 E9.77139
G1 X151.957 Y139.648 E9.81964
G1 X151.397 Y140.448 E9.86788
G1 X150.984 Y141.333 E9.91613
G1 X150.731 Y142.277 E9.96437
G1 X150.646 Y143.250 E10.01262
G1 X150.731 Y144.223 E10.06087
G1 X150.984 Y145.167 E10.10911
G1 X151.397 Y146.052 E10.15736
G1 X151.957 Y146.852 E10.20561
G1 X152.648 Y147.543 E10.25385
G1 X153.448 Y148.103 E10.30210
G1 X153.694 Y148.218 E10.31552
G1 X153.632 Y148.500 E10.32979
G1 X81.368 Y148.500 E13.89899
G1 X81.306 Y148.218 E13.91327
G1 X81.552 Y148.103 E13.92669
G1 X82.352 Y147.543 E13.97494
G1 X83.043 Y146.852 E14.02318
G1 X83.603 Y146.052 E14.07143
G1 X84.016 Y145.167 E14.11967
G1 X84.269 Y144.223 E14.16792
G1 X84.354 Y143.250 E14.21617
G1 X84.269 Y142.277 E14.26441
G1 X84.016 Y141.333 E14.31266
G1 X83.603 Y140.448 E14.36090
G1 X83.043 Y139.648 E14.40915
G1 X82.352 Y138.957 E14.45740
G1 X81.552 Y138.397 E14.50564
G1 X80.667 Y137.984 E14.55389
G1 X79.723 Y137.731 E14.60213
G1 X78.750 Y137.646 E14.65038
G1 X77.777 Y137.731 E14.69862
G1 X77.576 Y137.785 E14.70888
G1 X76.833 Y137.984 E14.74687
G1 X75.948 Y138.397 E14.79512
G1 X75.148 Y138.957 E14.84336
G1 X74.457 Y139.648 E14.89161
G1 X73.897 Y140.448 E14.93986
G1 X73.782 Y140.694 E14.95328
G1 X73.500 Y140.632 E14.96755
G1 X73.500 Y68.379 E18.53620
G1 X73.500 Y68.368 F600
G1 X73.782 Y68.306
G1 X73.782 Y145.806 F60000
G92 E0.00000
G1 X73.897 Y146.052 E0.01343 F300
G1 X74.457 Y146.852 E0.06167
G1 X75.148 Y147.543 E0.10992
G1 X75.948 Y148.103 E0.15816
G1 X76.194 Y148.218 E0.17159
G1 X76.132 Y148.500 E0.18586
G1 X74.544 Y148.500 E0.26431
G1 X74.327 Y148.481 E0.27505
G1 X74.159 Y148.436 E0.28361
G1 X74.002 Y148.363 E0.29220
G1 X73.860 Y148.263 E0.30077
G1 X73.766 Y148.169 E0.30733
G1 X73.632 Y147.988 E0.31845
G1 X73.564 Y147.841 E0.32647
G1 X73.530 Y147.712 E0.33303
G1 X73.500 Y147.445 E0.34632
G1 X73.500 Y145.879 E0.42366
G1 X73.500 Y145.868 F300
G1 X73.782 Y145.806
G1 X74.720 Y145.832 F60000
G1 X75.072 Y146.336
G1 X75.664 Y146.928
G1 X76.350 Y147.408
G1 X77.108 Y147.761
G1 X77.916 Y147.978
G1 X78.750 Y148.051
G1 X79.584 Y147.978
G1 X80.392 Y147.761
G1 X81.150 Y147.408
G1 X81.836 Y146.928
G1 X82.428 Y146.336
G1 X82.623 Y146.056
G1 X158.806 Y148.218
G92 E0.00000
G1 X159.052 Y148.103 E0.01343 F300
G1 X159.852 Y147.543 E0.06167
G1 X160.543 Y146.852 E0.10992
G1 X161.103 Y146.052 E0.15816
G1 X161.218 Y145.806 E0.17159
G1 X161.500 Y145.868 E0.18586
G1 X161.500 Y147.456 E0.26430
G1 X161.481 Y147.673 E0.27504
G1 X161.436 Y147.841 E0.28362
G1 X161.363 Y147.998 E0.29219
G1 X161.263 Y148.140 E0.30078
G1 X161.140 Y148.263 E0.30935
G1 X160.998 Y148.363 E0.31793
G1 X160.841 Y148.436 E0.32650
G1 X160.673 Y148.481 E0.33508
G1 X160.456 Y148.500 E0.34582
G1 X158.879 Y148.500 E0.42372
G1 X158.868 Y148.500 F300
G1 X158.806 Y148.218
G1 X158.832 Y147.280 F60000
G1 X159.336 Y146.928
G1 X159.928 Y146.336
G1 X160.408 Y145.650
G1 X160.761 Y144.892
G1 X160.978 Y144.084
G1 X161.051 Y143.250
G1 X160.978 Y142.416
G1 X160.761 Y141.608
G1 X160.408 Y140.850
G1 X159.928 Y140.164
G1 X159.336 Y139.572
G1 X159.056 Y139.377
G1 X161.218 Y63.194
G92 E0.00000
G1 X161.103 Y62.948 E0.01343 F300
G1 X160.543 Y62.148 E0.06167
G1 X159.852 Y61.457 E0.10992
G1 X159.052 Y60.897 E0.15816
G1 X158.806 Y60.782 E0.17159
G1 X158.868 Y60.500 E0.18586
G1 X160.456 Y60.500 E0.26430
G1 X160.673 Y60.519 E0.27504
G1 X160.841 Y60.564 E0.28362
G1 X160.998 Y60.637 E0.29220
G1 X161.107 Y60.713 E0.29875
G1 X161.270 Y60.869 E0.30988
G1 X161.363 Y61.002 E0.31789
G1 X161.436 Y61.159 E0.32647
G1 X161.481 Y61.327 E0.33504
G1 X161.500 Y61.544 E0.34578
G1 X161.500 Y63.121 E0.42368
